X:4020
T:Drunken Sailor
T:What Shall We Do
R:Hornpipe
C:Trad.
O:England
M:4/4
L:1/8
Q:1/4=150
K:Em
"Em"B2BB B2BB |B2E2G2B2 |"D"A2AA A2AA |A2D2F2A2 |"Em"B2BB B2BB |B2^c2d2e2 |"Bm"d2B2"D"A2F2 |"Em"E4 E2 z2 ||
"Em"B4 B3B |B2E2G2B2 |"D"A4 A3A |A2D2F2A2 |"Em"B4 B3B |B2^c2d2e2 |"Bm"d2B2"D"A2F2 |"Em"E4 E2 z2 |]

